icons/sling.svg

<svg width="48" height="48" viewBox="0 0 48 48" fill="none" xmlns="http://www.w3.org/2000/svg">
<path fill-rule="evenodd" clip-rule="evenodd" d="M24 22C28.4183 22 32 18.4183 32 14C32 9.58172 28.4183 6 24 6C19.5817 6 16 9.58172 16 14C16 18.4183 19.5817 22 24 22ZM24 20C27.3137 20 30 17.3137 30 14C30 10.6863 27.3137 8 24 8C20.6863 8 18 10.6863 18 14C18 17.3137 20.6863 20 24 20Z" fill="black"/>
<path fill-rule="evenodd" clip-rule="evenodd" d="M41 33C41 28.0294 36.9706 24 32 24H16C11.0294 24 7 28.0294 7 33C7 37.9706 11.0294 42 16 42H24C26.2091 42 28 40.2091 28 38C28 36.0944 26.6675 34.5 24.8834 34.0979L28.1731 26H32C35.866 26 39 29.134 39 33C39 36.866 35.866 40 32 40V36C33.6569 36 35 34.6569 35 33C35 31.3431 33.6569 30 32 30H30V42H32C36.9706 42 41 37.9706 41 33ZM16 26C12.134 26 9 29.134 9 33C9 34.811 9.68775 36.4614 10.8163 37.7043L13.5153 34.6814C13.1904 34.2022 13 33.6235 13 33C13 31.3431 14.3431 30 16 30H17.6951L21.2665 26H16ZM24.1094 36.0029L22.4856 40H24C25.1046 40 26 39.1046 26 38C26 36.9321 25.1631 36.0598 24.1094 36.0029ZM20.3269 40L26.0144 26H23.9477L12.3588 38.9796C13.4197 39.627 14.6663 40 16 40H20.3269ZM33 33C33 33.5523 32.5523 34 32 34V32C32.5523 32 33 32.4477 33 33ZM15.9055 32.0044C15.3975 32.052 15 32.4796 15 33L15.0002 33.0183L15.9055 32.0044Z" fill="black"/>
</svg>

<svg
  xmlns="http://www.w3.org/2000/svg"
  width="24"
  height="24"
  viewBox="0 0 24 24"
  fill="none"
  stroke="currentColor"
  stroke-width="2"
  stroke-linecap="round"
  stroke-linejoin="round"
>
  <path
    fill-rule="evenodd"
    d="M24 22a8 8 0 1 0 0-16 8 8 0 0 0 0 16m0-2a6 6 0 1 0 0-12 6 6 0 0 0 0 12"
    clip-rule="evenodd"
  />
  <path
    fill-rule="evenodd"
    d="M41 33a9 9 0 0 0-9-9H16a9 9 0 1 0 0 18h8a4 4 0 0 0 .883-7.902L28.173 26H32a7 7 0 1 1 0 14v-4a3 3 0 1 0 0-6h-2v12h2a9 9 0 0 0 9-9m-25-7a7 7 0 0 0-5.184 11.704l2.7-3.023A3 3 0 0 1 16 30h1.694l3.572-4zm8.11 10.003L22.485 40H24a2 2 0 0 0 .11-3.997M20.326 40l5.687-14h-2.066l-11.59 12.98A6.97 6.97 0 0 0 16 40zM33 33a1 1 0 0 1-1 1v-2a1 1 0 0 1 1 1m-17.094-.996A1 1 0 0 0 15 33v.018z"
    clip-rule="evenodd"
  />
</svg>
